X: 10
I: linebreak $
T: Sellinger's Round
T: round for as many as will
P: AA BB x 4
C: 
K: C major
M: 6/4
L: 1/8
P: A
 |: "G"G6 "C"G3AB2 | "C"c6 c3de2 | "Dm"d4c2 "G"B3AB2 |  [1 "C"c12 :|]  [2 "C"c6- c4d2 :: 
P: B
"C"e6 e3dc2 | 
"G"d6- d4d2 | "G"B3cd2 d3cB2 | "D"A6 d4"G"B2 | "C"c3dc2 "G"B4G2 | "F"A3Bc2 "G"B4G2 | "F"A4"C"G2 "D"^F3EF2 | 
 [1 "G"G6- G4d2 :|]  [2 "G"G12 :| 

